X: 32922
T: Prata Paxaro
R: reel
M: 4/4
K: Adorian
|:e2e2 cBA2|e2e2 cBA2|G2GA B2Bd|efed B2Bd|
e2e2 cBA2|e2e2 cBA2|G2GA B2Bd|1 efed B2Bd:|2 efed Bdef||
|:g2ga fAzG|A3B cBAG|ABcd gfeg|fAdf g2ga|
fAzG A3B|cBAG ABcd|gfeg f2z2:|

